X: 1
T: Marie Provan
C:\251 George Meikle
B: George Meikle "Originally Mine" p.17
R: jig
Z: 2010 John Chambers <jc:trillian.mit.edu>
M: 6/8
L: 1/8
K: F
c |\
"F"FAA "C/F"Acc | "F"cdd "C/F"dcA | "F"FAA "Dm7"Acc | "Gm"cBB "C7"B3 |
"C"EGG "G/C"GBB | "C"Bcc "G/C"cBG | "C"EGG "E/C7"GBB | "F"Acc "G/C7"d2c |
"F"FAA "C/F"Acc | "F"cdd "C/F"dcA | "F"FAA "A/F7"Ac^c | "Bb"d3 d3 |
"Bb"dcd "Gm"fed | "F"c2A "Dm"ABc | "Gm"B2G "C7"GAG | "F"F3 "A/F7"F2c ||
"Bb"d2B "F/Bb"Bcd | "Bb"FBd "D/Bb"fed | "F"c2A "C/F"ABc | "F"FAc "Dm"dcA |
"Gm"B2G "D/Gm"G^FG | "C"CEG "E/C7"BAG | "F"AGA "E/C"BAB | "F"c2A "A/F7"FAc |
"Bb"d2B "F/Bb"Bcd | "Bb"FBd "D/Bb"fed | "F"c2A "C7"ABc | "F"FAc "Dm"dcA |
"Gm"B2G "D/Gm"G^FG | "C"CEG "E/C7"BAG | "F"AcA "E/C"GcG | "F"F3 F3 |]
%%begintext align
This tune was composed for a country dancing friend who used to run regular dances in Lenzie.
%%endtext

%%sep 1 1 500
%%sep 1 1 500

